X: 11
T: Brighton Camp
O: Eynsham
B: Nan Fleming-Williams and Pat Shaw "English Dance Airs" Book 3 (1968, 1984)
Z: 1997 by John Chambers <jc@trillian.mit.edu>
P: 2x(AA+BBB+AB+AB)+AB
M: C|
L: 1/8
K: G
P: A
D2 \
| "G"G2Bc "D7"d2ef | "G"g2dc BAG2 | Bcd2 "C"e2f2 | "A7"g4 "D7"f2ag |
| "C"e2dc "D7"~B2A2 | "G"B2G2 "C"E3G | "G"B2G2 "C"E3G | "D7"FGAF D2(3DEF | "G"G4 G2 ||
P: B
Bc \
| "G"d2B2 ecAB | "Am"c2E2 "D7"GFD2 | "G"G3F "Em"GABc | "D7"dedc "G"B2gf |
| "C"e2dc "D7"~B2A2 | "G"B2G2 "C"E3G | "G"B2G2 "C"E3G | "D7"FGAF D2(3DEF | "G"G4 G2 |]


